X:1
T:James Gibb editions
T:O joyful sound! O glorious hour! - Barnby
%%score [ ( 1 2 ) ( 3 4 ) ]
L:1/8
Q:1/4=80
M:4/4
K:Ab
V:1 treble nm="Midi_74"
V:2 treble 
V:3 bass nm="Midi_74"
V:4 bass 
V:1
"^Thomas Kelly\n(1769-1855)""^St Augustine (886. 886)""^O joyful sound! O glorious hour!""^Joseph Barnby\n(1838-96)"!f! A2 | %1
 B2 B2 A2 A2 | d2 d2 c2 || c2 | B2 A2 G2 A2 | F2 F2 =E2 || F2 | G2 C2 =E2 =D2 | C6 ||[M:4/4] C2 | %10
 G2 F2 =E2 F2 | A2 d2 c2 || C2 | G2 F2 =E2 F2 | A2 d2 c2 ||!ff! B2 | e2 d2 B2 B2 | A6 || A4 A4 |] %19
V:2
 E2 | F2 E2 E2 E2 | D2 F2 E2 || E2 | =E2 F2 C2 C2 | C2 =B,2 C2 || C2 | G,2 =A,2 =B,2 B,2 | C6 || %9
[M:4/4] C2 | C2 C2 C2 C2 | C2 F2 =E2 || C2 | C2 C2 C2 C2 | C2 D2 E2 || E2 | E2 F2 D2 D2 | C6 || %18
 D4 C4 |] %19
V:3
 C2 | D2 D2 C2 C2 | A,2 A,2 A,2 || C2 | C2 C2 B,2 A,2 | A,2 F,2 G,2 || F,2 | =E,2 F,2 G,2 F,2 | %8
 =E,6 ||[M:4/4] C,2 | B,2 A,2 B,2 C2 | %11
"^1. O joyful sound! O glorious hour\nWhen Christ by His almighty power\nArose and left the grave!\nNow let our songs His triumph tell\nWho broke the chains of death and hell,\nAnd ever lives to save.\n\n2. The first begotten of the dead,\nFor us He rose, our glorious Head,\nImmortal life to bring.\nWhat though the saints, like Him shall die,\nThey share their Leader’s victory,\nAnd triumph with their King. \n\n3. No more we tremble at the grave;\nFor He who died our souls to save\nWill raise our bodies, too.\nWhat though this earthly house shall fail,\nThe Saviour’s power will yet prevail\nAnd build it up anew." C2 B,2 G,2 || %12
 C2 | B,2 A,2 B,2 C2 | A,2 A,2 A,2 || G,2 | A,2 A,2 A,2 G,2 | A,6 || F,4 E,4 |] %19
V:4
 A,2 | A,2 G,2 A,2 A,2 | F,2 D,2 A,2 || A,2 | G,2 F,2 =E,2 F,2 | D,2 D,2 C,2 || A,,2 | %7
 G,,2 G,,2 G,,2 G,,2 | C,6 ||[M:4/4] C,2 | =E,2 F,2 G,2 A,2 | F,2 G,2 C,2 || C2 | %13
 =E,2 F,2 G,2 A,2 | F,2 F,2 E,2 || D,2 | C,2 D,2 E,2 E,2 | A,,6 || D,4 A,,4 |] %19

